X: 320
T: 321. Wir Christenleut
N: Derived from chor321.krn
C: Johann Sebastian Bach
%%abc-version 2.0
%%abcx-abcm2ps-target-version 5.9.1 (29 Sep 2008)
%%abc-creator hum2abc beta
%%abcx-conversion-date 2019/03/11 17:28:19
%%abc-edited-by Craig Stuart Sapp
%%humdrum-veritas 1480343469
%%humdrum-veritas-data 1352027817
%%
%%barnumbers 0
L: 1/4
M: C
%%staves [1 2 3 4]
V: 1 clef=treble
V: 2 clef=treble
V: 3 clef=treble-8
V: 4 clef=bass
K: Bb
[V:1] G/A/ [I:setbarnb 1]| 
[V:2] D/^F/ | 
[V:3] B/c/ | 
[V:4] B,/A,/ | 
[V:1] BA!fermata!GG | 
[V:2] G^F!fermata!GE | 
[V:3] dd/c/!fermata!Bc | 
[V:4] G,D,!fermata!E,C, | 
[V:1] BA!fermata!Gd | 
[V:2] =E^F!fermata!DD/E/ | 
[V:3] Gd!fermata!B=F/G/ | 
[V:4] ^C,D,!fermata!G,,B,, | 
[V:1] =cB!fermata!AA | 
[V:2] =F/_E/ D/=E/!fermata!^FF | 
[V:3] AB/c/!fermata!dd | 
[V:4] F,G,!fermata!D,D, | 
[V:1] BBcc | 
[V:2] GGGA | 
[V:3] d_ee/d/c | 
[V:4] G,/=F,/ E,/D,/C,F,/E,/ | 
[V:1] ddcB | 
[V:2] BBAG | 
[V:3] fged | 
[V:4] D,/C,/ B,,/A,,/ G,,/^F,,/G,, | 
[V:1] A2!fermata!Gd | 
[V:2] G^F!fermata!G=F | 
[V:3] ed/c/!fermata!BB | 
[V:4] C,D,!fermata!G,,B,, | 
[V:1] cB!fermata!Ad | 
[V:2] FD!fermata!D=F | 
[V:3] AG!fermata!^FB | 
[V:4] F,G,!fermata!D,B, | 
[V:1] cB!fermata!AA | 
[V:2] GF/=E/!fermata!FE | 
[V:3] B/G/c!fermata!c^c | 
[V:4] =E,C,!fermata!F,A, | 
[V:1] BBcc | 
[V:2] ^FGGA | 
[V:3] d/=c/ B/A/ G/g/ =f/e/ | 
[V:4] D,_E,=E,=F, | 
[V:1] ddcB | 
[V:2] A/c/ B/A/ G/^F/G | 
[V:3] ddG/A/ B/G/ | 
[V:4] ^F,G,E,D, | 
[V:1] A2!fermata!G |]  
[V:2] G^F!fermata!D |]  
[V:3] =ed/c/!fermata!=B |]  
[V:4] ^C,D,!fermata!G,, |]  



